X:15
T:The Beed to me
Z:Jack Campin - http://www.campin.me.uk
S:Blaikie MS (NLS MS.1578) p6, Blaikie #14
M:C
L:1/8
V:1 midi program 1 74
V:2 midi program 1 46 bass middle = d transpose -24
Q:1/4=100
K:F
[V:1] FG|A2GF G2A2| F3 E    D2    E2   |F2C2 F2G2|AGAB c2
[V:2] z2|F2f2 e2f2| a4      b4         |a6     g2|f2d2 c2
%
[V:1] de|f3 e def2| cAGF    G2    FG   |A2c2 d3 c|d2D2 D2||
[V:2] z2|F2f2 F2f2| f2f2    c2    c'2  |F2f2 b2a2|b2B2 B2||
%
[V:1] FG|A2GF G2A2| GFED    EF````GE   |FCDE F2G2|AGAB c2
[V:2] z2|F2f2 e2f2|[c4c'4] [B2b2][B2b2]|a2b2 a2g2|f2d2 c2
%
[V:1] de|fedc defd| cAGF    G2    FG   |cAcd cdfd|f2F2 F2|]
[V:2] z2|F2f2 F2f2| F2A2    c2    c'2  |f2f2 f2f2|F2f2 f2|]
W:Transcription (c) Jack Campin 2009, no mirroring or republication without permission

